X: 21742
T: LOONEY MACTWOLTER
T: NEW LANGOLEE
O: Irish air.
Q: "Lively."
%R: air, jig
B: W. Hamilton "Universal Tune-Book" Vol. 2 Glasgow 1846 p.174 #2
S: http://s3-eu-west-1.amazonaws.com/itma.dl.printmaterial/book_pdfs/hamiltonvol2web.pdf
Z: 2016 John Chambers <jc:trillian.mit.edu>
M: 6/8
L: 1/8
K: A
% - - - - - - - - - - - - - - - - - - - - - - - - -
|:\
A3 .c2z | BAB c<AF |\
E>FG A2f | e>dc {c}B2A |\
A3 .c2z | {c}BAB c<AF |\
E>FG A2f | e>dc {c}B2A |]\
c>de ef=g | fdf ecA |
c>de ef=g | f^ge Ha2z |\
A>ce agf | {f/}e(e/d/)(d/c/) (cB)A |\
AEA AEA | Adc (cB)A |: \
A2 .c2z | {c}BAB c<AF |\
E>FA A2f | {f/}e<dc {c}B2A :|
% - - - - - - - - - - - - - - - - - - - - - - - - -

%%sep 1 1 500
%%sep 1 1 500

